X: 6959
T: Chewing Gum Boys, The
R: reel
M: 4/4
K: Emixolydian
|:GFGA AFGA|BEGB edBA|G3G AFGA|BAGE D2B,2|
GFGA AFGA|BEGB efgf|e2de BcdB|1 edBA GABA:|2 edBA GABe||
|:dBAd B2B/B/B|BcdB e2e/e/e|edBG AAGA|BAGE D2B,e|
dBAd B2B/B/B|BcdB efgf|e2ed BcdB|1 edBA GABe:|2 edBA GABA||

